!!!OTL: Fronleichnam - Gesang.
!!!ARE: Europa, Mitteleuropa, Deutschland
!!!SCT: A0576
!!!TXL: @@DE
!!!YEM: Copyright 1995, estate of Helmut Schaffrath.
**kern	**text
!! Mixed meters:  4/2; 6/2
*M6/2yy	*
*clefC4	*
*k[]	*
*D:dor	*
!LO:TX:a:t=dor.	!
2ryy	.
{2d	Wir
=1	=1
*M4/2	*
2d	wol-
2d	-len
2f	heu-
2f	-te
=2	=2
*M6/2	*
1e	lo-
1d}	-ben
{1f	vnd
=3	=3
2e	prei-
1d	-ſen
2c	vn-
1B	-ſern
=4	=4
*M4/2	*
1A	Gott,
2r}	.
{2e	der
=5	=5
2f	vns
2f	durch
2d	ſei-
2d	-nen
=6	=6
*M6/2	*
1c	Tod(e)
1A}	.
{1c	reich-
=7	=7
2A/	-lich
1G	er-
2F	-lö-
1E	-ſet
=8	=8
*M4/2	*
1D	hat,
2r}	.
{2D	dar-
=9	=9
2F	-ʒu
2E	von
2F	al-
2G	-len
=10	=10
*M6/2	*
1A	ſünden
1D}	.
{1d	durch
=11	=11
*lig	*
2.c	rew
4d	.
*Xlig	*
2e	und
*lig	*
2f	buß
2e	.
*Xlig	*
2d	ent-
=12	=12
*lig	*
2.c	-bun-
4B	.
*Xlig	*
1A}	-den
{1c	durch
=13	=13
2A/	ſei-
1G	-ne
2F	Prie-
1E	-ſter-
=14	=14
0D/ll}	-ſchafft.
==	==
!!!GTL: Geistliche Volkslieder
!!!AGN: Romanze, Ballade, Lied, religioeses Lied
!! Leisentrit I 1567 fol. 207.
!!!ONB: ESAC (Essen Associative Code) Database: ALTDEU
!!!AMT: irregular
!!!AIN: vox
!!!EED: Helmut Schaffrath
!!!EEV: 1.0
!!!RDF**kern: l = terminal long
!!!AMD: Dorian
!!!URL-scan: https://rosdok.uni-rostock.de/mcrviewer/recordIdentifier/rosdok_ppn738218359/iview2/phys_0759.iview2?x=-171.61612513683053&y=590.8377691288479&scale=0.5692057392176044&rotation=0&layout=singlePageLayout&logicalDiv=log_0021
!!!ENC: Anna Maria Matuszewska
!!!EEV: 2024/21/03
*-	*-
